X:269
T: Yuqi kangqing shierye
N: C1766
O: China,Shandong Qixia
S: III, 344]
R: Xiaodiao, Xiaoyangge diao]
M: 2/4
L: 1/16
K: C
G2E2G2A2 | c4c4 | c3de2d2 | c2A2G4 |
e4e2d2 | c2d2c4 | A3GA2c2 | G8 |
E4E2D2 | E4G4 | c4A2G2 | E4D4 |
e6d2 | c2d2c4 | d2G2A4 | G8

@@@ Tune index: 6824
